assets/White medium square/Flat/white_medium_square_flat.svg

<svg width="32" height="32" viewBox="0 0 32 32" fill="none" xmlns="http://www.w3.org/2000/svg">
<path d="M7.02783 4.5C5.64712 4.5 4.52783 5.61929 4.52783 7V25C4.52783 26.3807 5.64712 27.5 7.02783 27.5H25.0278C26.4085 27.5 27.5278 26.3807 27.5278 25V7C27.5278 5.61929 26.4085 4.5 25.0278 4.5H7.02783Z" fill="#9B9B9B"/>
<path d="M5.52783 7C5.52783 6.17157 6.1994 5.5 7.02783 5.5H25.0278C25.8563 5.5 26.5278 6.17157 26.5278 7V25C26.5278 25.8284 25.8563 26.5 25.0278 26.5H7.02783C6.1994 26.5 5.52783 25.8284 5.52783 25V7Z" fill="white"/>
</svg>

<svg xmlns="http://www.w3.org/2000/svg" width="32" height="32" fill="none"><path fill="#9B9B9B" d="M7.028 4.5a2.5 2.5 0 0 0-2.5 2.5v18a2.5 2.5 0 0 0 2.5 2.5h18a2.5 2.5 0 0 0 2.5-2.5V7a2.5 2.5 0 0 0-2.5-2.5h-18Z"/><path fill="#fff" d="M5.528 7a1.5 1.5 0 0 1 1.5-1.5h18a1.5 1.5 0 0 1 1.5 1.5v18a1.5 1.5 0 0 1-1.5 1.5h-18a1.5 1.5 0 0 1-1.5-1.5V7Z"/></svg>
